dist/assets/images/icons/bolt.svg

<?xml version="1.0" encoding="UTF-8" standalone="no"?>
<svg width="14px" height="23px" viewBox="0 0 14 23" version="1.1" xmlns="http://www.w3.org/2000/svg" xmlns:xlink="http://www.w3.org/1999/xlink" xmlns:sketch="http://www.bohemiancoding.com/sketch/ns">
    <!-- Generator: Sketch 3.4.4 (17249) - http://www.bohemiancoding.com/sketch -->
    <title>Untitled</title>
    <desc>Created with Sketch.</desc>
    <defs></defs>
    <g id="Page-1" stroke="none" stroke-width="1" fill="none" fill-rule="evenodd" sketch:type="MSPage">
        <path d="M3.69205572,0.343660688 C3.88142552,0.254536919 3.90227884,0.306762314 4.63552279,0.306762314 C5.36876889,0.306762314 12.8781936,0.307329969 13.1566125,0.307329969 C13.4350335,0.307329969 13.5702971,0.282920279 13.7061246,0.403833421 C13.8425161,0.524178909 13.7929198,0.726268504 13.7675566,0.772249547 C13.7410674,0.81709528 9.36357647,11.3512986 9.31792391,11.5193281 C9.27058146,11.6862223 9.35681266,11.935996 9.62395995,11.9382666 C9.89279712,11.941105 11.3998679,11.9382666 11.5351315,11.9382666 C11.6703971,11.9382666 12.009684,12.0875632 11.7881893,12.4667649 C11.5672585,12.8459667 4.26467289,21.9695166 4.10461012,22.1636588 C3.94511136,22.3578012 3.52241123,22.3629101 3.52241123,21.9530544 C3.52241123,21.5431984 4.16660609,12.471874 4.16660609,12.2748934 C4.16660609,12.0767775 4.03021454,11.9558643 3.79575833,11.9558643 C3.56017196,11.9558643 0.862776087,11.951323 0.691441714,11.951323 C0.519543331,11.951323 0.282828941,11.8934209 0.314956012,11.5749595 C0.347080939,11.2831785 3.01065986,2.13465123 3.53593673,0.545182607 C3.58102528,0.403833421 3.67345629,0.352743378 3.69205572,0.343660688" id="Fill-6" fill="#D18316" sketch:type="MSShapeGroup"></path>
    </g>
</svg>

<svg width="14" height="23" viewBox="0 0 14 23" xmlns="http://www.w3.org/2000/svg"><title>Untitled</title><path d="M3.7.34c.18-.09.2-.03.94-.03h8.52c.28 0 .41-.03.55.1.13.11.08.32.06.36-.03.05-4.4 10.58-4.45 10.75-.05.17.04.42.3.42h1.92c.13 0 .47.15.25.53-.22.38-7.53 9.5-7.69 9.7-.15.19-.58.2-.58-.22 0-.4.65-9.48.65-9.68 0-.2-.14-.31-.37-.31H.7c-.18 0-.42-.07-.39-.39.04-.29 2.7-9.44 3.23-11.02.04-.15.13-.2.15-.2" fill="#D18316" fill-rule="evenodd"/></svg>
